icons/desktop/16/svg/comment-16.svg

<svg width="16" height="16" viewBox="0 0 16 16" fill="none" xmlns="http://www.w3.org/2000/svg">
<path d="M4 5C4.55228 5 5 5.44772 5 6C5 6.55228 4.55228 7 4 7C3.44772 7 3 6.55228 3 6C3 5.44772 3.44772 5 4 5Z" fill="black"/>
<path d="M8 5C8.55228 5 9 5.44772 9 6C9 6.55228 8.55228 7 8 7C7.44772 7 7 6.55228 7 6C7 5.44772 7.44772 5 8 5Z" fill="black"/>
<path d="M12 5C12.5523 5 13 5.44772 13 6C13 6.55228 12.5523 7 12 7C11.4477 7 11 6.55228 11 6C11 5.44772 11.4477 5 12 5Z" fill="black"/>
<path fill-rule="evenodd" clip-rule="evenodd" d="M8 0C9.4553 0 11.0559 0.0588413 12.7773 0.212891L13.5225 0.285156L13.7812 0.324219C15.0539 0.578981 16 1.70045 16 3.02637V8.97363C16 10.3731 14.9513 11.5644 13.5459 11.7109C13.3667 11.7295 13.1837 11.7436 13 11.7607V13.2471C12.9999 14.7803 11.1693 15.5707 10.0527 14.5225L7.35449 11.9893C5.86039 11.9724 4.23088 11.8955 2.47754 11.7139C1.07695 11.5685 0 10.3884 0 8.97363V3.02539C0 1.62588 1.04865 0.434651 2.4541 0.288086C4.14155 0.112648 5.99787 0 8 0ZM8 1.5C6.05413 1.5 4.24992 1.60971 2.60938 1.78027C1.9811 1.84597 1.5 2.38109 1.5 3.02539V8.97363C1.5 9.6128 1.98945 10.155 2.63281 10.2217C3.99587 10.3629 5.28146 10.4407 6.48535 10.4746L7.66113 10.4951L7.80176 10.5088C7.93895 10.5358 8.06659 10.6013 8.16992 10.6982L11.0791 13.4297C11.2385 13.5792 11.4999 13.4657 11.5 13.2471V11.0771C11.5 10.686 11.8005 10.3602 12.1904 10.3291C12.5987 10.2966 12.9998 10.2592 13.3906 10.2188L13.5059 10.2012C14.0768 10.0862 14.5 9.57793 14.5 8.97363V3.02637C14.5 2.38673 14.0101 1.84402 13.3672 1.77734C11.4176 1.5753 9.6167 1.5 8 1.5Z" fill="black"/>
</svg>

<!-- This Source Code Form is subject to the terms of the Mozilla Public
   - License, v. 2.0. If a copy of the MPL was not distributed with this
   - file, You can obtain one at http://mozilla.org/MPL/2.0/. -->
<svg xmlns="http://www.w3.org/2000/svg" width="16" height="16" fill="context-fill" fill-opacity="context-fill-opacity" viewBox="0 0 16 16">
    <path d="M4 5a1 1 0 1 1 0 2 1 1 0 0 1 0-2M8 5a1 1 0 1 1 0 2 1 1 0 0 1 0-2M12 5a1 1 0 1 1 0 2 1 1 0 0 1 0-2" />
    <path fill-rule="evenodd" d="M8 0c1.455 0 3.056.059 4.777.213l.746.072.258.04A2.76 2.76 0 0 1 16 3.025v5.948c0 1.4-1.049 2.59-2.454 2.737q-.27.026-.546.05v1.486c0 1.533-1.83 2.324-2.947 1.276l-2.699-2.534a53 53 0 0 1-4.876-.275A2.76 2.76 0 0 1 0 8.974V3.025C0 1.625 1.049.435 2.454.288A54 54 0 0 1 8 0m0 1.5c-1.946 0-3.75.11-5.39.28-.629.066-1.11.601-1.11 1.245v5.949c0 .639.49 1.181 1.133 1.248 1.363.14 2.648.219 3.852.253l1.176.02.14.014a.75.75 0 0 1 .369.19l2.91 2.73c.159.15.42.037.42-.182v-2.17c0-.391.3-.717.69-.748q.614-.049 1.2-.11l.116-.018c.57-.115.994-.623.994-1.227V3.026c0-.64-.49-1.182-1.133-1.249A52 52 0 0 0 8 1.5" clip-rule="evenodd" />
</svg>
